X:1
T:Prelude, Fugue and Allegro in E-flat major
T:BWV 998
T:J. S. Bach
%%score { ( 1 3 5 ) | ( 2 4 ) }
L:1/8
Q:1/4=184
M:12/8
K:Eb
V:1 treble nm="Harp"
V:3 treble 
V:5 treble 
V:2 bass 
V:4 bass 
V:1
"^Presto" z ed eB_d cGA EAc | z BA BEG FAC DFA | z GF GB,D CEG B,=A,G, | =A,FE FA,C B,DF BFG | %4
 ECB, CG,B, =A,CE GFE | DB=A BF_A GDE B,EG | z FE FB,D CEG, =A,CE | z DC DF,A, G,B,_D A,G,F, | %8
 =E,G,B, DC=E FCA, F,G,A, | B,_DF AGB =EGB, DCB, | A,F=E FC_E DB,D FGA | GED E=B,D CA,C EFG | %12
 FDC D=A,C =B,G,B, DEF | Ec=B cG_B A=EF CFA | z GF GCE DFC =B,DF | z ED EG,B, A,CE B,A,G, | %16
 ^F,DC DF,=A, G,B,D GDE | CG,^F, G,C=A, F,A,C EDC | B,G,B, DG^F GBG D=E=F | =ECE GBA B_dc BAG | %20
 AF,A, CF=E FAC _EDC | DB,D FAG AcB AGF | GED EB,G, z G,B, EFG | AED EAc _dED EGB | %24
 cAG AE_G FC_D A,DF | z E_D EA,C B,DA, G,B,D | z CB, CA,G, A,F,=E, F,CE | DB,=A, B,CD EB,A, B,DE | %28
 FB,=A, B,DF AcB AGF | GED EG_D CGB, A,EG | FDC DFC B,FA, G,DF | ECB, CEB, A,EG, F,CE | %32
 DA,G, A,DF BA,G, A,DF | BG,F, G,B,E BG,F, G,B,E | BF,E, F,B,D AF,E, F,B,D | z2 G G2 G z z G G2 G | %36
 z z A A2 A z z B B2 B | _cAG AE_D E_CB, CA,G, | A,_F,E, F,A,_C _FCB, CFA | %39
 B2 !fermata!=A z/ G/B/A/G/F/ BFD B,F_A | GFE FCE F,A,G, A,ED | Eed eB_d cGA EAc | %42
 z BA BEG FAC DFA | z GF GB,_D CEA CB,A, | B,EG B,A,G, A,DF A,G,F, | G,B,E GB_d cAF DFA | %46
 GEB, G,B,_D CA,F, D,F,A, | A,2 !fermata!G, z3 z6 |[M:4/4][Q:1/4=144]"^Vivace" z2 E2 D2 E2 | %49
 F2 B,2 C2 D2 | E2 z D EGFE | DAGF EDCF | D2 F2 B2 =E2 | FCFG A2 D2 | EFG=A BFED | C2 z D EcBA | %56
 GFEA D/F/E/D/ B_D | C2 z/ A/G/F/ B2 z c | cB z A AG z E | ED G2 A2 B2 | BA z B, B,A, z F | %61
 F=E z F _EDCF | EDFE z BAG | FEDG E2 F2 | FE z _D DC z =E | =EF z _E ED z F | ^FG z =F FE z G | %67
 GA z G GF z E | ED B2 G2 A2 | B2 E2 F2 G2 | A2 z A GcBA | AG/F/ G2 A2 B2 | E2 z A AG z G | %73
 GF z B BA z A | AG z F FE z/ F/G/A/ | E/D/C/B,/ BA G2 F2 | %76
 !fermata![B,E]2 z/[I:staff +1] B,/G,/B,/ C/A,/E,/A,/[I:staff -1] z/[I:staff +1] C/A,/C/ | %77
 B,/G,/E,/G,/[I:staff -1] z/[I:staff +1] B,/B,/B,/ B,/C/B,/C/ A,/D/A,/D/ | %78
[I:staff -1] z2 z/ D/B,/D/ z/ E/B,/E/ z/ F/B,/F/ | z/ G/E/G/ B/A/G/F/ E/D/E/G/ F/E/D/C/ | %80
 D2 z/ F/D/F/ G/E/B,/E/ z/ G/E/G/ | F/D/B,/D/ z/ F/F/F/ F/G/F/G/ E/=A/E/A/ | %82
 D/B/D/B/ z/ =A/F/A/ z/ B/F/B/ z/ c/A/c/ | z/ d/B/d/ e/d/c/B/ A/G/A/c/ B/A/G/F/ | %84
 G2 z/ G/E/G/ E/A/E/A/ _D/B/D/B/ | C/E/F/G/ A/G/F/A/ F/B/F/B/ E/c/E/c/ | %86
 D/F/G/A/ G/F/E/D/ E/B/c/_d/ c/B/A/G/ | F/d/A/d/ G/e/B/e/ A/e/c/e/ B/e/_d/e/ | %88
 z/ c/B/c/ A/c/G/c/ F/c/=E/c/ F/c/A/c/ | z/ B/A/B/ G/B/F/B/ =E/B/D/B/ E/B/G/B/ | %90
 A/G/F/E/ D/E/D/E/ D/E/D/E/ D/E/D/E/ | F/A/G/F/ E/D/C/B,/ =A,2 =B,2 | %92
 C2 z/ E/C/E/ C/F/C/F/ B,/G/B,/G/ | =A,/C/D/E/ F/C/A,/C/ B,/D/F/G/ =A/E/C/E/ | %94
 D/F/B/c/ d/B/G/F/ =E/G/B/d/ c/=A/F/_E/ | D/^F/=A/c/ B/G/E/D/ ^C/=E/G/B/ A/F/D/=C/ | %96
 =B,/D/^F/=A/ G/E/C/_B,/ =A,/G/A,/G/ B,/G/B,/G/ | C/G/C/G/ D/G/^F/G/ E/G/C/G/ =A,/F/A,/F/ | %98
 G,/B/A/B/ G/B/F/B/ =E/B/F/B/ G/B/C/B/ | z/ B/A/G/ F/E/_D/C/ D/=E/F/A,/ G,/B,/F/E/ | %100
 F,/A/G/A/ F/A/E/A/ D/A/E/A/ F/A/B,/A/ | z/ A/G/F/ E/_D/C/B,/ C/=D/E/G,/ F,/E/D/A/ | %102
 G/E/[I:staff +1]B,/G,/ E,/G,/B,/C/ _D/B,/G,/F,/ E,/G,/B,/C/ | %103
 _D/B,/G,/F,/ =E,/G,/B,/C/ D/B,/G,/F,/ E,/D/C/B,/ | A,/F/C/A,/ F,/A,/C/D/ E/C/=A,/G,/ F,/A,/C/D/ | %105
[I:staff -1] E/C/=A,/G,/ ^F,/A,/C/D/ E/C/A,/G,/ F,/E/D/C/ | %106
 B,/G/D/B,/ G,/B,/_D/E/ _F/D/B,/A,/ G,/B,/D/E/ | _F/_D/B,/A,/ G,/B,/D/E/ F/D/B,/A,/ G,/=F/E/D/ | %108
 z2 E2 D2 E2 | F2 z/ B,/C/_D/ C2 z/ =D/C/D/ | %110
 E/B,/G,/B,/ z/[I:staff +1] B,/G,/B,/ C/A,/E,/A,/[I:staff -1] z/[I:staff +1] C/A,/C/ | %111
 B,/G,/E,/G,/[I:staff -1] z/ B/B,/B/ C/B/C/B/ D/A/D/A/ | G/E/B,/G,/ z G GF z D | DE z B B=A z E | %114
 ED z/ F/D/F/ G/E/B,/E/ z/ G/E/G/ | F/D/B,/D/ z/[I:staff +1] F/F,/F/ G,/F/G,/F/ =A,/E/A,/E/ | %116
 D/B,/F,/[I:staff -1]D, z/ D DC z =A | =AB z _A AG z =E | =EF F/A/_E/A/ D/A/B,/A/ E/G/D/G/ | %119
 C/G/A,/G/ F/A/F/A/ F/G/F/G/ E/G/E/G/ | E/F/E/F/ D/F/G/A/ B/_D/B/D/ C/E/F/G/ | %121
 A z [FA] z [FA]3 G/F/ | G/=A/G/A/ B/4A/4B/4A/4B/4A/4B/ B z z2 | %123
 F/[I:staff +1]A,/G,/F,/ G,/B,/C/_D/ C/B,/A,/G,/ F,/A,/B,/=D/ | E/B,/G,/E,/[I:staff -1] z D EGFE | %125
 DAGF EDCF | D2 F2 B2 =E2 | FCFG A2 D2 | EFG=A BFED | C2 z D EcBA | GFEA D/F/E/D/ B_D | %131
 C2 z/ A/G/F/ B2 z c | cB z A AG z E | ED G2 A2 B2 | BA z B, B,A, z F | F=E z F _EDCF | %136
 EDFE z BAG | FEDG E2 F2 | FE z _D DC z =E | =EF z _E ED z F | ^FG z =F FE z G | GA z G GF z E | %142
 ED B2 G2 A2 | B2 E2 F2 G2 | A2 z A GcBA | AG/F/ G2 A2 B2 | E2 z A AG z G | GF z B BA z A | %148
 AG z F FE z/ F/G/A/ | E/D/C/B,/ BA G2 F2 | !fermata![B,E]2 z2 z4 | %151
[M:3/8] z/[I:staff +1] E/D/C/B,/A,/ | G,/C/B,/A,/G,/F,/ | E,/D,/E,/F,/G,/E,/ | F,/G,/A,/E,/D,/A,/ | %155
 G,/B,/E/D/E/B,/ | C/E/D/C/B,/A,/ | G,/A,/B,/G,/F,/B,/ | E,/G,/C/D/E/B,/ | =A,/B,/C/A,/G,/C/ | %160
 F,/=A,/D/E/F/C/ | B,/C/D/B,/A,/D/ | G,/B,/[I:staff -1]E/F/G/E/ | C/D/E/F/G/B,/ | =A,/C/E/F/G/A,/ | %165
 B,/C/D/E/F/A,/ | G,/B,/D/E/F/G,/ | =A,/B,/C/D/E/G,/ | F,/=A,/C/D/E/C/ | D/B/=A/G/F/E/ | %170
 D/G/F/E/D/C/ | B,/=A,/B,/C/D/B,/ | C/D/E/B,/=A,/E/ | D/B,/C/D/E/F/ | G/E/F/G/=A/B/ | %175
 c/B/=A/G/F/E/ | DEC | z/ B,/=A,/B,/C/B,/ | D/B,/=A,/B,/E/B,/ | F/B,/=A,/B,/G/B,/ | A/F/E/D/C/B,/ | %181
 G/=A/B/4A/4B/4A/4B/4A/4B/ | [FB]3 | z/[I:staff +1] E/D/C/B,/A,/ | G,/C/B,/A,/G,/F,/ | %185
 E,/D,/E,/F,/G,/E,/ | F,/G,/A,/E,/D,/A,/ | G,/B,/E/D/E/B,/ | C/E/D/C/B,/A,/ | G,/A,/B,/G,/F,/B,/ | %190
 E,/G,/C/D/E/B,/ | =A,/B,/C/A,/G,/C/ | F,/=A,/D/E/F/C/ | B,/C/D/B,/A,/D/ | %194
 G,/B,/[I:staff -1]E/F/G/E/ | C/D/E/F/G/B,/ | =A,/C/E/F/G/A,/ | B,/C/D/E/F/A,/ | G,/B,/D/E/F/G,/ | %199
 =A,/B,/C/D/E/G,/ | F,/=A,/C/D/E/C/ | D/B/=A/G/F/E/ | D/G/F/E/D/C/ | B,/=A,/B,/C/D/B,/ | %204
 C/D/E/B,/=A,/E/ | D/B,/C/D/E/F/ | G/E/F/G/=A/B/ | c/B/=A/G/F/E/ | DEC | z/ B,/=A,/B,/C/B,/ | %210
 D/B,/=A,/B,/E/B,/ | F/B,/=A,/B,/G/B,/ | A/F/E/D/C/B,/ | G/=A/B/4A/4B/4A/4B/4A/4B/ | [FB]3 | %215
 z/ F/E/F/G/E/ | F/D/B,/D/F/G/ | A/E/F/A/D/A/ | G/A/B/G/E | z/[I:staff +1] B,/A,/B,/C/A,/ | %220
 B,/G,/E,/G,/B,/C/ | _D/A,/B,/D/G,/D/ | C/_D/E/C/A,/G,/ |[I:staff -1] z/ c/_d/c/B/A/ | %224
 G/c/_d/c/A/G/ | F/c/_d/c/G/F/ | =E/F/G z | z/[I:staff +1] C/_D/C/B,/A,/ | G,/C/_D/C/A,/G,/ | %229
 F,/C/_D/C/G,/F,/ | =E,/F,/G,[I:staff -1] z | z/ A/B/A/_D/C/ | B,/G/A/G/C/B,/ | A,/F/G/F/B,/A,/ | %234
 G,/F/=E/C/D/E/ | F/C/B,/C/=E/F/ | G/F/=E/F/G/B/ | A/4G/4F/ G=E | F2 z | %239
 z/[I:staff +1] F,/=E,/F,/G,/=A,/ | B,/F,/=E,/F,/=A,/B,/ | C/F,/=E,/F,/B,/C/ | D/E/F/B,/=A,/E/ | %243
[I:staff -1] D/B,/=A,/B,/C/D/ | E/B,/=A,/B,/D/E/ | F/B,/=A,/B,/E/F/ | G/A/B/E/D/A/ | G/B/c/B/A/G/ | %248
 F/B/c/B/G/F/ | E/B/c/B/F/E/ | D/E/F z | z/[I:staff +1] B,/C/B,/A,/G,/ | F,/B,/C/B,/G,/F,/ | %253
 E,/B,/C/B,/F,/E,/ | D,/E,/F,[I:staff -1] z | z/ F/E/G/^C/G/ | C/=E/F/C/G/B,/ | A,/G/F/A/E/A/ | %258
 D/F/G/D/A/C/ | B,/A/G/B/F/B/ | E/G/A/E/B/E/ | c/B/A/d/G/e/ | F/e/d/c/B/A/ | G/B/c/B/A/G/ | %264
 F/B/c/B/G/F/ | E/B/c/B/F/E/ | D/B/c/B/E/_D/ | C/G/F/G/A/G/ | F/c/E/D/E/C/ | D/B,/=A,/B,/C/B,/ | %270
 A,/F/A,/G,/A,/F,/ | G,/E/D/C/B,/A,/ |[I:staff +1] G,[F,A,][D,F,] | %273
[I:staff -1] z/[I:staff +1] E,/D,/E,/F,/E,/ | G,/E,/D,/E,/A,/E,/ | B,/E,/D,/E,/C/E,/ | %276
 _D/B,/A,/G,/F,/E,/ | C[I:staff -1] FD | E3 | z/ F/E/F/G/E/ | F/D/B,/D/F/G/ | A/E/F/A/D/A/ | %282
 G/A/B/G/E | z/[I:staff +1] B,/A,/B,/C/A,/ | B,/G,/E,/G,/B,/C/ | _D/A,/B,/D/G,/D/ | %286
 C/_D/E/C/A,/G,/ |[I:staff -1] z/ c/_d/c/B/A/ | G/c/_d/c/A/G/ | F/c/_d/c/G/F/ | =E/F/G z | %291
 z/[I:staff +1] C/_D/C/B,/A,/ | G,/C/_D/C/A,/G,/ | F,/C/_D/C/G,/F,/ | =E,/F,/G,[I:staff -1] z | %295
 z/ A/B/A/_D/C/ | B,/G/A/G/C/B,/ | A,/F/G/F/B,/A,/ | G,/F/=E/C/D/E/ | F/C/B,/C/=E/F/ | %300
 G/F/=E/F/G/B/ | A/4G/4F/ G=E | F2 z | z/[I:staff +1] F,/=E,/F,/G,/=A,/ | B,/F,/=E,/F,/=A,/B,/ | %305
 C/F,/=E,/F,/B,/C/ | D/E/F/B,/=A,/E/ |[I:staff -1] D/B,/=A,/B,/C/D/ | E/B,/=A,/B,/D/E/ | %309
 F/B,/=A,/B,/E/F/ | G/A/B/E/D/A/ | G/B/c/B/A/G/ | F/B/c/B/G/F/ | E/B/c/B/F/E/ | D/E/F z | %315
 z/[I:staff +1] B,/C/B,/A,/G,/ | F,/B,/C/B,/G,/F,/ | E,/B,/C/B,/F,/E,/ | D,/E,/F,[I:staff -1] z | %319
 z/ F/E/G/^C/G/ | C/=E/F/C/G/B,/ | A,/G/F/A/E/A/ | D/F/G/D/A/C/ | B,/A/G/B/F/B/ | E/G/A/E/B/E/ | %325
 c/B/A/d/G/e/ | F/e/d/c/B/A/ | G/B/c/B/A/G/ | F/B/c/B/G/F/ | E/B/c/B/F/E/ | D/B/c/B/E/_D/ | %331
 C/G/F/G/A/G/ | F/c/E/D/E/C/ | D/B,/=A,/B,/C/B,/ | A,/F/A,/G,/A,/F,/ | G,/E/D/C/B,/A,/ | %336
[I:staff +1] G,[F,A,][D,F,] |[I:staff -1] z/[I:staff +1] E,/D,/E,/F,/E,/ | G,/E,/D,/E,/A,/E,/ | %339
 B,/E,/D,/E,/C/E,/ | _D/B,/A,/G,/F,/E,/ | C[I:staff -1] FD | !fermata!E3 |] %343
V:2
 E,,3 z3 z6 | E,,3 z3 z6 | E,,3 z3 z6 | E,,3 z3 D,,3 z3 | C,,3 z3 F,,3 z3 | [B,,,B,,]3 z3 z6 | %6
 B,,3 z3 z6 | B,,3 z3 z6 | B,,3 z3 A,,3 z3 | G,,3 z3 C,3 z3 | F,,2 z A,,2 z B,,2 z D,2 z | %11
 E,,2 z G,,2 z A,,2 z C,2 z | D,,2 z F,,2 z G,,2 z =B,,2 z | C,,3 z3 z6 | C,,3 z3 z6 | C,,3 z3 z6 | %16
 C,3 z3 B,,3 z3 | =A,,3 z3 D,3 z3 | G,,3 z3 B,,3 z3 | C,3 z3 =E,3 z3 | F,,3 z3 A,,3 z3 | %21
 B,,3 z3 D,3 z3 | E,,3 z3 _D,3 z3 | C,3 z3 B,,3 z3 | A,,3 z3 z6 | A,,3 z3 z6 | A,,3 z3 z6 | %27
 A,,3 z3 G,,3 z3 | D,,3 z3 B,,,3 z3 | E,,2 z G,,2 z A,,2 z C,2 z | D,,2 z F,,2 z G,,2 z B,,2 z | %31
 C,,2 z E,,2 z F,,2 z A,,2 z | B,,3 z3 z6 | C,3 z3 z6 | D,3 z3 z6 | E,3 z3 _D,3 z3 | %36
 _C,3 z3 B,,3 z3 | A,,3 z3 z6 | A,,3 z3 z6 | !fermata!E,,3 z3 D,,3 z3 | %40
 E,,2 z A,,2 z B,,2 z B,,,2 z | E,,3 z3 z6 | E,,3 z3 z6 | E,,3 z3 E,,3 z3 | E,,3 z3 E,,3 z3 | %45
 E,,3 z z [G,,E,-] [A,,E,]2 z [B,,F,]2 z | [C,E,]3 z2 G,, A,,2 z B,,2 z | %47
 !fermata![E,,B,,E,]3 z3 z6 |[M:4/4] z8 | z8 | z2 B,2 G,2 A,2 | B,2 E,2 G,2 =A,2 | %52
 B,CB,A, G,_DCB, | A,2 z G, F,CB,A, | G,2 z2 z DCB, | =A,G,F,B, G,2 F,2 | B,2 C2 B,2 z B, | %57
 A,2 z2 z/[I:staff -1] F/E/D/ CE |[I:staff +1] B,2 B,,2 G,,2 A,,2 | B,,2 E,,2 F,,2 G,,2 | %60
 A,,2 C,2 A,,2 B,,2 | C,2 F,,2 G,,2 =A,,2 | B,,2 E,,2 D,,2 E,,2 | F,,2 B,,,2 C,,2 D,,2 | %64
 E,,2 G,,2 A,,2 G,,2 | F,,2 =A,,2 B,,2 _A,,2 | G,,2 =B,,2 C,2 _B,,2 | A,,2 A,,,2 A,,2 A,,,2 | %68
 B,,,B,,C,D, E,C,B,,A,, | G,,2 A,,2 z _D,C,B,, | F,E, F,2 G,2 A,2 | B,2 E,,2 F,,2 G,,2 | %72
 A,,2 A,2 B,2 C2 | B,2 D,2 E,2 F,2 | G,2 A,2 B,2 C2 | F,2 E,2 z2 z2 | !fermata!E,,2 E,2 z2 E,,2 | %77
 z2 G,,2 A,,2 B,,2 | G,/E/G,/E/ F,2 E,2 D,2 | E,2 E,2 G,2[I:staff -1] =A,2 | %80
[I:staff +1] z/ B,/F,/D,/ z2 z4 | z2 D,2 E,2 F,2 | B,,2 z2 B,,,2 z2 | B,,2 G,2 F,2 B,,2 | %84
 E,2 E,,2 F,,2 G,,2 | A,,2 F,,2 G,,2 =A,,2 | B,,2 B,2 G,2 A,2 | B,2 E,2 F,2 G,2 | A,2 z2 _D2 z2 | %89
 G,2 z2 C2 z2 | z2 C2 =B,2 C2 | =B,,2 C,2 F,,2 G,,2 | z/ F,/E,/D,/ C,2 z4 | F,2 E,2 D,2 C,2 | %94
 B,,2 B,2 G,2 =A,2 | B,2 G,2 =E,2 ^F,2 | G,2 E,2 C,2 D,2 | E,2 B,,2 C,2 D,2 | G,,2 B,,2 C,2 =E,2 | %99
 F,2 A,,2 B,,2 C,2 | F,,2 A,,2 B,,2 D,2 | E,2 G,,2 A,,2 B,,2 | E,,2 z2 E,,2 G,,2 | %103
 B,,2 G,,2 =E,2 C,2 | F,2 z2 F,,2 =A,,2 | C,2 =A,,2 ^F,2 D,2 | G,2 z2 G,,2 B,,2 | %107
 _D,2 B,,2 G,2 E,2 | A, z =A,,2 B,,2 C,2 | D,,2 E,,2 A,,2 B,,2 | E,,2 E,2 z2 E,,2 | %111
 z2 G,,2 A,,2 B,,2 | E,,2 E,2 B,2 B,,2 | E,,2 E,2 F,2 F,,2 | B,,2 B,2 z2 B,,2 | z2 D,,2 E,,2 F,,2 | %116
 B,,,2 B,,2 F,2 F,,2 | B,,2 =B,,2 C,2 C,,2 | F,,2 z2 z4 | z2 DC =B,G,C_B, | =A,F,B,_A, G,E,A,G, | %121
 F,E,E,D, D,C,D,B,, | E,D,C,F,, B,,2 G,,2 | D,,2 E,,2 A,,2 B,,2 | E,,2 B,2 G,2 A,2 | %125
 B,2 E,2 G,2 =A,2 | B,CB,A, G,_DCB, | A,2 z G, F,CB,A, | G,2 z2 z DCB, | =A,G,F,B, G,2 F,2 | %130
 B,2 C2 B,2 z B, | A,2 z2 z/[I:staff -1] F/E/D/ CE |[I:staff +1] B,2 B,,2 G,,2 A,,2 | %133
 B,,2 E,,2 F,,2 G,,2 | A,,2 C,2 A,,2 B,,2 | C,2 F,,2 G,,2 =A,,2 | B,,2 E,,2 D,,2 E,,2 | %137
 F,,2 B,,,2 C,,2 D,,2 | E,,2 G,,2 A,,2 G,,2 | F,,2 =A,,2 B,,2 _A,,2 | G,,2 =B,,2 C,2 _B,,2 | %141
 A,,2 A,,,2 A,,2 A,,,2 | B,,,B,,C,D, E,C,B,,A,, | G,,2 A,,2 z _D,C,B,, | F,E, F,2 G,2 A,2 | %145
 B,2 E,,2 F,,2 G,,2 | A,,2 A,2 B,2 C2 | B,2 D,2 E,2 F,2 | G,2 A,2 B,2 C2 | F,2 E,2 z2 z2 | %150
 !fermata!E,,2 z2 z4 |[M:3/8] E,,2 z | E,2 D, | C,2 B,, | A,,F,,B,, | E,,F,,G,, | A,,B,,B,,, | %157
 E,,2 D,, | C,,E,,C,, | F,,2 E,, | D,,F,,D,, | G,,2 F,, | E,,2 z | E,E,E, | C,C,C, | D,D,D, | %166
 B,,B,,B,, | C,C,C, | =A,,A,,A,, | B,,D,F, | B,2 =A, | G,2 F, | E,C,F, | B,,2 z | E,2 z | =A,,2 z | %176
 B,,E,,F,, | B,,,2 z | z B,,C, | D,2 z | z B,,D, | E,C,F, | B,,3 | E,,2 z | E,2 D, | C,2 B,, | %186
 A,,F,,B,, | E,,F,,G,, | A,,B,,B,,, | E,,2 D,, | C,,E,,C,, | F,,2 E,, | D,,F,,D,, | G,,2 F,, | %194
 E,,2 z | E,E,E, | C,C,C, | D,D,D, | B,,B,,B,, | C,C,C, | =A,,A,,A,, | B,,D,F, | B,2 =A, | G,2 F, | %204
 E,C,F, | B,,2 z | E,2 z | =A,,2 z | B,,E,,F,, | B,,,2 z | z B,,C, | D,2 z | z B,,D, | E,C,F, | %214
 B,,3 | B,,,2 z | z D,,B,,, | C,,D,,B,,, | E,,2 z/ F,,/ | G,,2 A,, | E,,G,,E,, | F,,G,,E,, | %222
 A,,2 z | F,2 z | E,2 z | _D,2 z | C,>B,,A,,/G,,/ | F,, z F, | E, z E,, | _D,, z _D, | %230
 C,>B,,A,,/G,,/ | F,, z F, | _D, z E, | C, z _D, | B,,C,B,, | A,,G,,F,, | _D,C,B,, | C,B,,C, | %238
 F,,A,,C, | F,,2 z | G,,2 z | =A,,2 z | B,,D,,F,, | B,,,2 z | C,,2 z | D,,2 z | E,,G,,B,, | E,2 z | %248
 D,2 z | C,2 z | B,,>A,,G,,/F,,/ | E,, z E, | D, z D,, | C,, z C, | B,,>C,B,,/A,,/ | G,, z E,, | %256
 A,, z C, | F,, z F, | B, z F, | G, z B,, | C, z G,, | A,,F,,E,, | B,,C,D, | E,D,C, | D,C,B,, | %265
 C,B,,A,, | B,,A,,G,, | A,,A,,A,, | =A,,A,,A,, | B,,B,,B,, | D,D,D, | E,G,,A,, | B,,A,,B,, | E,,3 | %274
 z E,,F,, | G,,2 z | z E,,G,, | A,,F,,B,, | E,,3 | B,,,2 z | z D,,B,,, | C,,D,,B,,, | %282
 E,,2 z/ F,,/ | G,,2 A,, | E,,G,,E,, | F,,G,,E,, | A,,2 z | F,2 z | E,2 z | _D,2 z | %290
 C,>B,,A,,/G,,/ | F,, z F, | E, z E,, | _D,, z _D, | C,>B,,A,,/G,,/ | F,, z F, | _D, z E, | %297
 C, z _D, | B,,C,B,, | A,,G,,F,, | _D,C,B,, | C,B,,C, | F,,A,,C, | F,,2 z | G,,2 z | =A,,2 z | %306
 B,,D,,F,, | B,,,2 z | C,,2 z | D,,2 z | E,,G,,B,, | E,2 z | D,2 z | C,2 z | B,,>A,,G,,/F,,/ | %315
 E,, z E, | D, z D,, | C,, z C, | B,,>C,B,,/A,,/ | G,, z E,, | A,, z C, | F,, z F, | B, z F, | %323
 G, z B,, | C, z G,, | A,,F,,E,, | B,,C,D, | E,D,C, | D,C,B,, | C,B,,A,, | B,,A,,G,, | A,,A,,A,, | %332
 =A,,A,,A,, | B,,B,,B,, | D,D,D, | E,G,,A,, | B,,A,,B,, | E,,3 | z E,,F,, | G,,2 z | z E,,G,, | %341
 A,,F,,B,, | !fermata!E,,3 |] %343
V:3
 x12 | x12 | x12 | x12 | x12 | x12 | x12 | x12 | x12 | x12 | x12 | x12 | x12 | x12 | x12 | x12 | %16
 x12 | x12 | x12 | x12 | x12 | x12 | x12 | x12 | x12 | x12 | x12 | x12 | x12 | x12 | x12 | x12 | %32
 x12 | x12 | x12 | GB,E EB,E z B,E EB,E | z CE EA,E z G,_D DG,D | E z z z3 z6 | x12 | [CF]3 z3 z6 | %40
 x12 | x12 | x12 | x12 | x12 | x12 | x12 | x12 |[M:4/4] x8 | x8 | x8 | x8 | x8 | x8 | x8 | x8 | %56
 x8 | x8 | ED/C/ D F FE z G, | G,F, z E _DCB,E | _DC z G, G,F, z A, | A,G, =A,2 B,2 C2 | %62
 CB,A,G, F,2 z E | DCCB, A,G,F,B, | A,G, z B, B,A, z C | B,=A, z C CB, z C | C=B, z D DC z _D | %67
 _DC z B, B,A, z G, | G,F, z2 z E_DC | B,_DCB, A,2 B,2 | C2 z B, B,C z B, | DE z E E_D z D | %72
 _DC z F FE z E | ED z G GF z F | FE z D DE z2 | z2 E2 E2 D2 | G,2 z2 z4 | x8 | z2 A,2 G,2 A,2 | %79
 [G,B,]2 z2 z4 | x8 | x8 | z2 E2 D2 E2 | F2[I:staff +1] B,2 C2[I:staff -1] D2 | z/ E/B,/G,/ z2 z4 | %85
 x8 | x8 | x8 | x8 | x8 | x8 | %91
 D2[I:staff +1] G,2[I:staff -1] =A,/G,/[I:staff +1]F,/E,/ D,/[I:staff -1]_A,/G,/F,/ | x8 | x8 | %94
 x8 | x8 | x8 | x8 | x8 | x8 | x8 | x8 | x8 | x8 | x8 | x8 | x8 | x8 | %108
 C/B,/A,/G,/ F,/G,/F,/G,/ F,/G,/F,/G,/ F,/G,/F,/G,/ | A,/B,/A,/B,/ G,2 z/ B,/A,/G,/ F,2 | x8 | x8 | %112
 z2 z E ED z A, | A,G, z D DC z =A, | =A,B, z2 z4 | x8 | z2 z B, B,=A, z E | ED z F F=E z B, | %118
 B,A, z2 z4 | x8 | x8 | z2 C z B,3 z | z2 E2 D/B,/=A,/B,/ E/B,/A,/B,/ | x8 | x8 | x8 | x8 | x8 | %128
 x8 | x8 | x8 | x8 | ED/C/ D F FE z G, | G,F, z E _DCB,E | _DC z G, G,F, z A, | A,G, =A,2 B,2 C2 | %136
 CB,A,G, F,2 z E | DCCB, A,G,F,B, | A,G, z B, B,A, z C | B,=A, z C CB, z C | C=B, z D DC z _D | %141
 _DC z B, B,A, z G, | G,F, z2 z E_DC | B,_DCB, A,2 B,2 | C2 z B, B,C z B, | DE z E E_D z D | %146
 _DC z F FE z E | ED z G GF z F | FE z D DE z2 | z2 E2 E2 D2 | G,2 x6 |[M:3/8] x3 | x3 | x3 | x3 | %155
 x3 | x3 | x3 | x3 | x3 | x3 | x3 | x3 | x3 | x3 | x3 | x3 | x3 | x3 | x3 | x3 | x3 | x3 | x3 | %174
 x3 | x3 | z C=A, | x3 | x3 | x3 | x3 | x3 | D3 | x3 | x3 | x3 | x3 | x3 | x3 | x3 | x3 | x3 | x3 | %193
 x3 | x3 | x3 | x3 | x3 | x3 | x3 | x3 | x3 | x3 | x3 | x3 | x3 | x3 | x3 | z C=A, | x3 | x3 | x3 | %212
 x3 | x3 | D3 | x3 | x3 | x3 | x3 | x3 | x3 | x3 | x3 | x3 | x3 | x3 | x3 | x3 | x3 | x3 | x3 | %231
 x3 | x3 | x3 | x3 | x3 | x3 | z B,G, | A,2 z | x3 | x3 | x3 | x3 | x3 | x3 | x3 | x3 | x3 | x3 | %249
 x3 | x3 | x3 | x3 | x3 | x3 | x3 | x3 | x3 | x3 | x3 | x3 | x3 | x3 | x3 | x3 | x3 | x3 | x3 | %268
 x3 | x3 | x3 | x3 | x3 | x3 | x3 | x3 | x3 | x3 | G,3 | x3 | x3 | x3 | x3 | x3 | x3 | x3 | x3 | %287
 x3 | x3 | x3 | x3 | x3 | x3 | x3 | x3 | x3 | x3 | x3 | x3 | x3 | x3 | z B,G, | A,2 z | x3 | x3 | %305
 x3 | x3 | x3 | x3 | x3 | x3 | x3 | x3 | x3 | x3 | x3 | x3 | x3 | x3 | x3 | x3 | x3 | x3 | x3 | %324
 x3 | x3 | x3 | x3 | x3 | x3 | x3 | x3 | x3 | x3 | x3 | x3 | x3 | x3 | x3 | x3 | x3 | x3 | G,3 |] %343
V:4
 x12 | x12 | x12 | x12 | x12 | x12 | x12 | x12 | x12 | x12 | x12 | x12 | x12 | x12 | x12 | x12 | %16
 x12 | x12 | x12 | x12 | x12 | x12 | x12 | x12 | x12 | x12 | x12 | x12 | x12 | x12 | x12 | x12 | %32
 x12 | x12 | x12 | x12 | x12 | x12 | x12 | x12 | x12 | x12 | x12 | x12 | x12 | x12 | x12 | x12 | %48
[M:4/4] x8 | x8 | x8 | x8 | x8 | x8 | z2 E,2 D,2 E,2 | F,2 B,,2 C,2 D,2 | E,2 A,4 G,2 | %57
 z/ G,/F,/E,/ F,2 G,2 =A,2 | x8 | x8 | x8 | x8 | x8 | x8 | x8 | x8 | x8 | x8 | x8 | x8 | %70
 z2 D,2 E,2 F,2 | G,2 z2 z4 | z2 F,2 G,2 =A,2 | z2 B,,2 C,2 D,2 | E,2 F,,2 G,,2 A,,2- | %75
 A,,2 G,,A,, B,,2 B,,,2 | x8 | x8 | E,,2 z2 E,,2 z2 | E,,2 G,,2 C,2 F,,2 | B,,2 B,,,2 z2 B,,2 | %81
 x8 | x8 | x8 | x8 | x8 | x8 | x8 | x8 | x8 | F,2 ^F,2 G,2 A,2 | x8 | C,,2 C,2 D,2 =E,2 | x8 | x8 | %95
 x8 | x8 | x8 | x8 | x8 | x8 | x8 | x8 | x8 | x8 | x8 | x8 | x8 | x8 | x8 | x8 | x8 | x8 | x8 | %114
 x8 | x8 | x8 | x8 | x8 | x8 | x8 | x8 | x8 | x8 | x8 | x8 | x8 | x8 | z2 E,2 D,2 E,2 | %129
 F,2 B,,2 C,2 D,2 | E,2 A,4 G,2 | z/ G,/F,/E,/ F,2 G,2 =A,2 | x8 | x8 | x8 | x8 | x8 | x8 | x8 | %139
 x8 | x8 | x8 | x8 | x8 | z2 D,2 E,2 F,2 | G,2 z2 z4 | z2 F,2 G,2 =A,2 | z2 B,,2 C,2 D,2 | %148
 E,2 F,,2 G,,2 A,,2- | A,,2 G,,A,, B,,2 B,,,2 | x8 |[M:3/8] x3 | x3 | x3 | x3 | x3 | x3 | x3 | x3 | %159
 x3 | x3 | x3 | x3 | x3 | x3 | x3 | x3 | x3 | x3 | x3 | x3 | x3 | x3 | x3 | x3 | x3 | x3 | x3 | %178
 x3 | x3 | x3 | x3 | x3 | x3 | x3 | x3 | x3 | x3 | x3 | x3 | x3 | x3 | x3 | x3 | x3 | x3 | x3 | %197
 x3 | x3 | x3 | x3 | x3 | x3 | x3 | x3 | x3 | x3 | x3 | x3 | x3 | x3 | x3 | x3 | x3 | x3 | x3 | %216
 x3 | x3 | x3 | x3 | x3 | x3 | x3 | x3 | x3 | x3 | x3 | x3 | x3 | x3 | x3 | x3 | x3 | x3 | x3 | %235
 x3 | x3 | x3 | x3 | x3 | x3 | x3 | x3 | x3 | x3 | x3 | x3 | x3 | x3 | x3 | x3 | x3 | x3 | x3 | %254
 x3 | x3 | x3 | x3 | x3 | x3 | x3 | x3 | x3 | x3 | x3 | x3 | x3 | x3 | x3 | x3 | x3 | x3 | x3 | %273
 x3 | x3 | x3 | x3 | z[I:staff -1] A,F, | x3 | x3 | x3 | x3 | x3 | x3 | x3 | x3 | x3 | x3 | x3 | %289
 x3 | x3 | x3 | x3 | x3 | x3 | x3 | x3 | x3 | x3 | x3 | x3 | x3 | x3 | x3 | x3 | x3 | x3 | x3 | %308
 x3 | x3 | x3 | x3 | x3 | x3 | x3 | x3 | x3 | x3 | x3 | x3 | x3 | x3 | x3 | x3 | x3 | x3 | x3 | %327
 x3 | x3 | x3 | x3 | x3 | x3 | x3 | x3 | x3 | x3 | x3 | x3 | x3 | x3 | %341
[I:staff +1] z[I:staff -1] A,F, | x3 |] %343
V:5
 x12 | x12 | x12 | x12 | x12 | x12 | x12 | x12 | x12 | x12 | x12 | x12 | x12 | x12 | x12 | x12 | %16
 x12 | x12 | x12 | x12 | x12 | x12 | x12 | x12 | x12 | x12 | x12 | x12 | x12 | x12 | x12 | x12 | %32
 x12 | x12 | x12 | x12 | x12 | x12 | x12 | x12 | x12 | x12 | x12 | x12 | x12 | x12 | x12 | x12 | %48
[M:4/4] x8 | x8 | x8 | x8 | x8 | x8 | x8 | x8 | x8 | x8 | x8 | x8 | x8 | x8 | x8 | x8 | x8 | x8 | %66
 x8 | x8 | x8 | x8 | x8 | x8 | x8 | x8 | x8 | z2 B,C B,2 A,2 | x8 | x8 | x8 | x8 | x8 | x8 | x8 | %83
 x8 | x8 | x8 | x8 | x8 | x8 | x8 | x8 | x8 | x8 | x8 | x8 | x8 | x8 | x8 | x8 | x8 | x8 | x8 | %102
 x8 | x8 | x8 | x8 | x8 | x8 | x8 | x8 | x8 | x8 | x8 | x8 | x8 | x8 | x8 | x8 | x8 | x8 | x8 | %121
 x8 | x8 | x8 | x8 | x8 | x8 | x8 | x8 | x8 | x8 | x8 | x8 | x8 | x8 | x8 | x8 | x8 | x8 | x8 | %140
 x8 | x8 | x8 | x8 | x8 | x8 | x8 | x8 | x8 | z2 B,C B,2 A,2 | x8 |[M:3/8] x3 | x3 | x3 | x3 | x3 | %156
 x3 | x3 | x3 | x3 | x3 | x3 | x3 | x3 | x3 | x3 | x3 | x3 | x3 | x3 | x3 | x3 | x3 | x3 | x3 | %175
 x3 | x3 | x3 | x3 | x3 | x3 | x3 | x3 | x3 | x3 | x3 | x3 | x3 | x3 | x3 | x3 | x3 | x3 | x3 | %194
 x3 | x3 | x3 | x3 | x3 | x3 | x3 | x3 | x3 | x3 | x3 | x3 | x3 | x3 | x3 | x3 | x3 | x3 | x3 | %213
 x3 | x3 | x3 | x3 | x3 | x3 | x3 | x3 | x3 | x3 | x3 | x3 | x3 | x3 | x3 | x3 | x3 | x3 | x3 | %232
 x3 | x3 | x3 | x3 | x3 | x3 | x3 | x3 | x3 | x3 | x3 | x3 | x3 | x3 | x3 | x3 | x3 | x3 | x3 | %251
 x3 | x3 | x3 | x3 | x3 | x3 | x3 | x3 | x3 | x3 | x3 | x3 | x3 | x3 | x3 | x3 | x3 | x3 | x3 | %270
 x3 | x3 | x3 | x3 | x3 | x3 | x3 | x3 | x3 | x3 | x3 | x3 | x3 | x3 | x3 | x3 | x3 | x3 | x3 | %289
 x3 | x3 | x3 | x3 | x3 | x3 | x3 | x3 | x3 | x3 | x3 | x3 | x3 | x3 | x3 | x3 | x3 | x3 | x3 | %308
 x3 | x3 | x3 | x3 | x3 | x3 | x3 | x3 | x3 | x3 | x3 | x3 | x3 | x3 | x3 | x3 | x3 | x3 | x3 | %327
 x3 | x3 | x3 | x3 | x3 | x3 | x3 | x3 | x3 | x3 | x3 | x3 | x3 | x3 | x3 | x3 |] %343

